icons/svg/headset_36.svg

<?xml version="1.0" encoding="UTF-8"?>
<svg width="36px" height="36px" viewBox="0 0 36 36" version="1.1" xmlns="http://www.w3.org/2000/svg" xmlns:xlink="http://www.w3.org/1999/xlink">
    <!-- Generator: Sketch 55.2 (78181) - https://sketchapp.com -->
    <title>audio/headset_36</title>
    <desc>Created with Sketch.</desc>
    <g id="Icons-Webex" stroke="none" stroke-width="1" fill="none" fill-rule="evenodd">
        <g id="audio/headset_36" fill="#000000">
            <g id="headset_36">
                <path d="M29.7266,23.4922 C29.9056,22.6842 30.0076,21.8522 30.0076,21.0032 L30.0076,12.5242 C32.7956,12.7422 34.9996,15.1122 34.9996,18.0002 C34.9996,20.9742 32.6376,23.4212 29.7266,23.4922 L29.7266,23.4922 Z M18.0076,35.0002 C16.6296,35.0002 15.5076,33.8792 15.5076,32.5002 C15.5076,31.1212 16.6296,30.0002 18.0076,30.0002 C19.3866,30.0002 20.5076,31.1212 20.5076,32.5002 C20.5076,33.8792 19.3866,35.0002 18.0076,35.0002 L18.0076,35.0002 Z M5.9996,23.4772 C3.2006,23.2242 0.9996,20.8642 0.9996,18.0002 C0.9996,15.1362 3.2006,12.7762 5.9996,12.5222 L5.9996,23.4772 Z M29.9926,11.5232 C29.8286,5.1432 24.5226,0.0002 18.0076,0.0002 C11.5016,0.0002 6.1796,5.1532 6.0216,11.5242 C2.6616,11.7712 -0.0004,14.5772 -0.0004,18.0002 C-0.0004,21.5842 2.9156,24.5002 6.4996,24.5002 C6.7766,24.5002 6.9996,24.2762 6.9996,24.0002 L6.9996,12.0002 C6.9996,11.9992 6.9996,11.9982 6.9996,11.9982 C7.0036,11.9352 7.0056,11.8652 7.0086,11.7752 C7.0346,5.8332 11.9686,1.0002 18.0076,1.0002 C24.0736,1.0002 29.0076,5.8552 29.0076,11.8242 L29.0076,21.0032 C29.0076,25.7262 25.8466,29.9272 21.2906,31.3272 C20.8056,29.9752 19.5246,29.0002 18.0076,29.0002 C16.0786,29.0002 14.5076,30.5702 14.5076,32.5002 C14.5076,34.4302 16.0786,36.0002 18.0076,36.0002 C19.9376,36.0002 21.5076,34.4302 21.5076,32.5002 C21.5076,32.4352 21.4926,32.3762 21.4896,32.3122 C25.3756,31.1532 28.3386,28.1282 29.4846,24.4122 L29.5006,24.5022 L29.6636,24.4972 C33.1576,24.4582 35.9996,21.5432 35.9996,18.0002 C35.9996,14.5542 33.3386,11.7352 29.9926,11.5232 L29.9926,11.5232 Z" id="Fill-1"></path>
            </g>
        </g>
    </g>
</svg>

<svg width="36" height="36" xmlns="http://www.w3.org/2000/svg"><path d="M29.727 23.492c.179-.808.28-1.64.28-2.489v-8.479C32.797 12.742 35 15.112 35 18c0 2.974-2.362 5.421-5.273 5.492zM18.007 35a2.503 2.503 0 01-2.5-2.5c0-1.379 1.123-2.5 2.5-2.5 1.38 0 2.5 1.121 2.5 2.5 0 1.38-1.12 2.5-2.5 2.5zM6 23.477A5.507 5.507 0 011 18a5.509 5.509 0 015-5.478v10.955zm23.993-11.954C29.829 5.143 24.523 0 18.008 0 11.502 0 6.18 5.153 6.022 11.524 2.662 11.771 0 14.577 0 18c0 3.584 2.916 6.5 6.5 6.5A.5.5 0 007 24V12v-.002c.004-.063.006-.133.009-.223C7.035 5.833 11.969 1 18.008 1c6.066 0 11 4.855 11 10.824v9.18c0 4.722-3.161 8.923-7.717 10.323A3.494 3.494 0 0018.008 29c-1.93 0-3.5 1.57-3.5 3.5s1.57 3.5 3.5 3.5 3.5-1.57 3.5-3.5c0-.065-.015-.124-.018-.188a11.946 11.946 0 007.995-7.9l.016.09.163-.005C33.158 24.458 36 21.543 36 18c0-3.446-2.661-6.265-6.007-6.477z" fill="#000" fill-rule="evenodd"/></svg>
